packages/symbols/svgs/solid/grip-vertical-solid.svg

<svg width="16" height="16" viewBox="0 0 16 16" xmlns="http://www.w3.org/2000/svg"><g clip-path="url(#a)"><path fill-rule="evenodd" clip-rule="evenodd" d="M3 0h4v4H3V0Zm6 0h4v4H9V0ZM7 6H3v4h4V6Zm2 0h4v4H9V6Zm-2 6H3v4h4v-4Zm2 0h4v4H9v-4Z"/></g><defs><clipPath id="a"><path fill="#fff" d="M0 0h16v16H0z"/></clipPath></defs></svg>

<svg width="16" height="16" viewBox="0 0 16 16" fill="none" xmlns="http://www.w3.org/2000/svg">
<g clip-path="url(#clip0_827_2881)">
<path fill-rule="evenodd" clip-rule="evenodd" d="M3 0L7 6.99382e-07L7 4L3 4L3 0ZM9 1.04907e-06L13 1.74846e-06L13 4L9 4L9 1.04907e-06ZM7 6L3 6L3 10L7 10L7 6ZM9 6L13 6L13 10L9 10L9 6ZM7 12L3 12L3 16L7 16L7 12ZM9 12L13 12L13 16L9 16L9 12Z" fill="black"/>
</g>
<defs>
<clipPath id="clip0_827_2881">
<rect width="16" height="16" fill="white"/>
</clipPath>
</defs>
</svg>
